X: 11407
T: East Clare, The
R: reel
M: 4/4
K: Ddorian
|:D2FA d2cA|GEED EFGc|Adde dcAB|cAGE AEGE|
DEFA d2cA|GEED EFGc|Adde dcAB|1 cAGE EDCE:|2 cAGE ED D2||
[|aged cded|c3d egg2|aged cded|cAGE EDD2|
e3g aged|dcAB cAGc|AFFE FGAB|cAGE EDD2|
aged cded|c3d egg2|aged cded|cAGE EDD2|
e3g aged|dcAd cAGc|AFFE FGAB|cAGE EDCE||



